src/pos-icons/microsoft-powerpoint.svg

<svg height="24" viewBox="0 0 24 24" width="24" xmlns="http://www.w3.org/2000/svg"><path d="m13.25 3.25q1.21 0 2.33.31 1.12.32 2.09.89.97.55 1.77 1.36.79.8 1.36 1.77.58.97.89 2.09.31 1.12.31 2.33 0 1.21-.31 2.33-.31 1.12-.89 2.09-.57.97-1.36 1.77-.8.81-1.77 1.36-.97.58-2.09.89-1.12.31-2.33.31-1.07 0-2.1-.25-1.03-.26-1.95-.74-.92-.49-1.7-1.18-.81-.7-1.43-1.58h-3.24q-.33 0-.59-.24-.24-.26-.24-.59v-8.34q0-.33.24-.58.26-.25.59-.25h3.24q.62-.88 1.43-1.58.78-.7 1.7-1.18.93-.48 1.95-.74 1.03-.25 2.1-.25m.63 1.28v6.84h6.84q-.12-1.37-.69-2.56-.57-1.19-1.48-2.11-.91-.91-2.12-1.48-1.2-.57-2.55-.69m-4.38 6.31q0-.57-.2-.97-.19-.41-.52-.66-.33-.26-.78-.37-.45-.12-1-.12h-2.63v6.55h1.54v-2.27h1.03q.48 0 .93-.16.46-.14.82-.41.36-.26.58-.67.23-.4.23-.92m3.75 8.66q.98 0 1.89-.24.9-.26 1.71-.68.81-.45 1.48-1.08.67-.61 1.17-1.37.5-.77.83-1.66.31-.89.39-1.85h-8.08v-8.09q-1.45.12-2.73.76-1.28.64-2.24 1.71h3.5q.33 0 .59.25.24.25.24.58v8.34q0 .33-.24.59-.26.24-.59.24h-3.5q.53.6 1.17 1.06.66.44 1.35.78.72.33 1.49.49.77.17 1.57.17m-6.4-9.5q.47 0 .76.19.28.19.28.7 0 .22-.1.36-.1.14-.26.25-.16.07-.35.1-.18.04-.38.04h-.89v-1.64z"/></svg>

<?xml version="1.0" encoding="UTF-8"?><!DOCTYPE svg PUBLIC "-//W3C//DTD SVG 1.1//EN" "http://www.w3.org/Graphics/SVG/1.1/DTD/svg11.dtd"><svg xmlns="http://www.w3.org/2000/svg" xmlns:xlink="http://www.w3.org/1999/xlink" version="1.1" id="mdi-microsoft-powerpoint" width="24" height="24" viewBox="0 0 24 24"><path d="M13.25 3.25Q14.46 3.25 15.58 3.56 16.7 3.88 17.67 4.45 18.64 5 19.44 5.81 20.23 6.61 20.8 7.58 21.38 8.55 21.69 9.67 22 10.79 22 12 22 13.21 21.69 14.33 21.38 15.45 20.8 16.42 20.23 17.39 19.44 18.19 18.64 19 17.67 19.55 16.7 20.13 15.58 20.44 14.46 20.75 13.25 20.75 12.18 20.75 11.15 20.5 10.12 20.24 9.2 19.76 8.28 19.27 7.5 18.58 6.69 17.88 6.07 17H2.83Q2.5 17 2.24 16.76 2 16.5 2 16.17V7.83Q2 7.5 2.24 7.25 2.5 7 2.83 7H6.07Q6.69 6.12 7.5 5.42 8.28 4.72 9.2 4.24 10.13 3.76 11.15 3.5 12.18 3.25 13.25 3.25M13.88 4.53V11.37H20.72Q20.6 10 20.03 8.81 19.46 7.62 18.55 6.7 17.64 5.79 16.43 5.22 15.23 4.65 13.88 4.53M9.5 10.84Q9.5 10.27 9.3 9.87 9.11 9.46 8.78 9.21 8.45 8.95 8 8.84 7.55 8.72 7 8.72H4.37V15.27H5.91V13H6.94Q7.42 13 7.87 12.84 8.33 12.7 8.69 12.43 9.05 12.17 9.27 11.76 9.5 11.36 9.5 10.84M13.25 19.5Q14.23 19.5 15.14 19.26 16.04 19 16.85 18.58 17.66 18.13 18.33 17.5 19 16.89 19.5 16.13 20 15.36 20.33 14.47 20.64 13.58 20.72 12.62H12.64V4.53Q11.19 4.65 9.91 5.29 8.63 5.93 7.67 7H11.17Q11.5 7 11.76 7.25 12 7.5 12 7.83V16.17Q12 16.5 11.76 16.76 11.5 17 11.17 17H7.67Q8.2 17.6 8.84 18.06 9.5 18.5 10.19 18.84 10.91 19.17 11.68 19.33 12.45 19.5 13.25 19.5M6.85 10Q7.32 10 7.61 10.19 7.89 10.38 7.89 10.89 7.89 11.11 7.79 11.25 7.69 11.39 7.53 11.5 7.37 11.57 7.18 11.6 7 11.64 6.8 11.64H5.91V10H6.85Z" /></svg>
